svg/wifi_strength_1_alert.svg

<svg xmlns="http://www.w3.org/2000/svg" viewBox="0 0 24 24"><path d="M12 3C7.8 3 3.7 4.4.4 7c4 5.1 7.5 9.4 11.6 14.5 2.4-3 4.7-5.8 7-8.7V9.6l-3.4 4.2c-1.1-.5-2.4-.8-3.6-.8s-2.5.3-3.6.8L3.3 7.4C5.9 5.8 8.9 5 12 5s6.1.9 8.7 2.4l-.4.6h2.6c.2-.3.6-.7.8-1-3.4-2.6-7.5-4-11.7-4m9 7v6h2v-6m-2 8v2h2v-2"/></svg>

<?xml version="1.0" encoding="UTF-8"?><!DOCTYPE svg PUBLIC "-//W3C//DTD SVG 1.1//EN" "http://www.w3.org/Graphics/SVG/1.1/DTD/svg11.dtd"><svg xmlns="http://www.w3.org/2000/svg" xmlns:xlink="http://www.w3.org/1999/xlink" version="1.1" id="mdi-wifi-strength-1-alert" width="24" height="24" viewBox="0 0 24 24"><path d="M12 3C7.8 3 3.7 4.4 .4 7C4.4 12.1 7.9 16.4 12 21.5C14.4 18.5 16.7 15.7 19 12.8V9.6L15.6 13.8C14.5 13.3 13.2 13 12 13S9.5 13.3 8.4 13.8L3.3 7.4C5.9 5.8 8.9 5 12 5S18.1 5.9 20.7 7.4L20.3 8H22.9C23.1 7.7 23.5 7.3 23.7 7C20.3 4.4 16.2 3 12 3M21 10V16H23V10M21 18V20H23V18" /></svg>
